X: 30
T: McLenon's Reel
C: by Bob McQuillen
%D:1979
R: reel
B: PC1 p.142
S: Fiddle Hell Online 2021-10-13 Portland Collection Jam handout
Z: 2022 John Chambers <jc:trillian.mit.edu>
M: C|
L: 1/8
K: Bm
%%continueall
"^A"|: dB |:\
"Bm"F2B2 B2dB | "D"AFAB A2 \
  [1,3 BA | "Bm"F2B2 B2dB | "D"A6 BA \
:|[2,4 de | "Bm"f2ed "A"c2A2 | "Bm(G)"B6 :|
"^B"|: de |\
"D"fefg a2f2 | "A"edcB A2 \
  [1,3 de | "D"fefa f2d2 | "A"e6 \
:|[2,4 Bc | "Bm"d2ed "A"cBA2 | "Bm(G)"B6 :|


